assets/icons/folder_icons/folder-tools-open.svg

<?xml version="1.0" encoding="UTF-8"?><svg id="Done" xmlns="http://www.w3.org/2000/svg" xmlns:xlink="http://www.w3.org/1999/xlink" viewBox="0 0 14 14"><defs><style>.cls-1,.cls-2{fill:silver;}.cls-3{opacity:.3;}.cls-3,.cls-4{isolation:isolate;}.cls-5{fill:#40a0ff;}.cls-2,.cls-6{fill-rule:evenodd;}.cls-7{fill:url(#linear-gradient);}.cls-8{fill:red;}.cls-4{fill:url(#radial-gradient);opacity:.711;}</style><radialGradient id="radial-gradient" cx="119.5267" cy="-111.1261" fx="119.5267" fy="-111.1261" r="1.5875" gradientTransform="translate(-266.606 -480.7402) rotate(33.6901) scale(4.1287 -2.2712)" gradientUnits="userSpaceOnUse"><stop offset="0" stop-color="#000"/><stop offset="1" stop-color="#000" stop-opacity="0"/></radialGradient><linearGradient id="linear-gradient" x1="76.1361" y1="-136.2097" x2="76.6652" y2="-136.2097" gradientTransform="translate(-282.7584 -506.3085) scale(3.7795 -3.7795)" gradientUnits="userSpaceOnUse"><stop offset="0" stop-color="#000"/><stop offset="1" stop-color="#000" stop-opacity="0"/></linearGradient></defs><g id="Layer_36"><path id="path560" class="cls-5" d="m0,0v12l4.1131,1.9355c.3105.1468.681.0135.8275-.2976.0393-.0834.0596-.1746.0594-.2668v-2.3711h6V1c-.004-.745-.4086-.9893-1-1H0Z"/><g id="g567"><path id="path561" class="cls-3" d="m-.0179,0l4.0855,1.5882c.5621.2185.9324.7597.9324,1.3628v8.049h6V1c-.004-.745-.4093-.9893-1.0016-1H-.0179Z"/><path id="path562" class="cls-4" d="m10,11c.7057-.0798,1.0812-.3798,1-.9844v-5.0156c.6647-.0018.998-.3352,1-1V1C12.0053.3601,11.6907.0097,11,0H0v11h10Z"/><g id="g201"><rect id="rect197" x="5" y="4" width="7" height="3"/><polygon id="rect198" class="cls-6" points="3 6 14 6 14 14 4.3802 14 3 13 3 6"/><path id="path198" class="cls-2" d="m6,5h5v2h-1v-1h-3l.0313,1h-1.0313v-2Z"/><rect id="rect199" class="cls-8" x="4" y="7" width="9" height="6"/><rect id="rect200" x="3" y="9" width="10" height="1"/><rect id="rect201" class="cls-1" x="8" y="9" width="1" height="2"/></g><path id="path567" class="cls-7" d="m5,4h2v9h-2V4Z"/></g><path class="cls-5" d="m5,2.9511c.0005-.6031-.3694-1.1446-.9315-1.3632L0,.0056v11.994l4.1131,1.9355c.3105.1468.681.0135.8275-.2976.033-.0701.0446-.1472.0499-.2242l.0095-10.4621Z"/></g></svg>

<svg xmlns="http://www.w3.org/2000/svg" id="Done" viewBox="0 0 14 14"><defs><radialGradient id="radial-gradient" cx="119.527" cy="-111.126" r="1.587" fx="119.527" fy="-111.126" gradientTransform="matrix(3.43528 2.2902 1.25984 -1.88975 -266.606 -480.74)" gradientUnits="userSpaceOnUse"><stop offset="0"/><stop offset="1" stop-opacity="0"/></radialGradient><linearGradient id="linear-gradient" x1="76.136" x2="76.665" y1="-136.21" y2="-136.21" gradientTransform="matrix(3.7795 0 0 -3.7795 -282.758 -506.308)" gradientUnits="userSpaceOnUse"><stop offset="0"/><stop offset="1" stop-opacity="0"/></linearGradient><style>.cls-5{fill:#40a0ff}</style></defs><g id="Layer_36"><path id="folder" d="M0 0v12l4.113 1.936A.62.62 0 0 0 5 13.37V11h6V1c-.004-.745-.409-.99-1-1z" class="cls-5"/><path id="folder_shadow" d="m-.018 0 4.086 1.588c.562.219.932.76.932 1.363V11h6V1c-.004-.745-.41-.99-1.002-1z" opacity=".3" style="isolation:isolate"/><path id="flap_shadow" fill="url(#radial-gradient)" d="M10 11c.706-.08 1.081-.38 1-.984V5q.997-.003 1-1V1c.005-.64-.31-.99-1-1H0v11z" opacity=".711" style="isolation:isolate"/><g id="g201"><path id="rect197" d="M5 4h7v3H5z"/><path id="rect198" fill-rule="evenodd" d="M3 6h11v8H4.38L3 13z"/><path id="path198" fill="silver" fill-rule="evenodd" d="M6 5h5v2h-1V6H7l.031 1H6z"/><path id="rect199" fill="red" d="M4 7h9v6H4z"/><path id="rect200" d="M3 9h10v1H3z"/><path id="rect201" fill="silver" d="M8 9h1v2H8z"/></g><path id="icon_shadow" fill="url(#linear-gradient)" d="M5 4h2v9H5z"/><path id="flap" d="M5 2.951c0-.603-.37-1.145-.931-1.363L0 .006V12l4.113 1.935c.31.147.681.014.828-.298a.6.6 0 0 0 .05-.224z" class="cls-5"/></g></svg>
